X: 1
T: On Jordan's Bank the Baptist's Cry
C: Words: Charles Coffin, 1736; st. 1-3 translated by John Chandler, 1837; st 4-5 translator unknown.  
C: Music: 'Puer Nobis Nascitur' Michael Praetorius, 1609. 
C: Setting: G.R. Woodward (1848-1934) for The English Hymnal, 1906.
C: copyright: public domain.  This score is a part of the Open Hymnal Project, 2006 Revision.
S: Music source: 'The English Hymnal', 1906 Hymn 14.
M: 3/4 % time signature
L: 1/4 % default length
%%staves (S1V1 S1V2) | (S2V1 S2V2) 
V: S1V1 clef=treble 
V: S1V2 
V: S2V1 clef=bass 
V: S2V2 
K: D % key signature
%
%%MIDI program 1 0 % Piano 1
%%MIDI program 2 0 % Piano 1
%%MIDI program 3 0 % Piano 1
%%MIDI program 4 0 % Piano 1
%
% 1
[V: S1V1]  [Q:1/4=120] D | D2 E | F2 G | F2 E | D2 D | A2 A | (A B) c | d2 d | d2
w: 1.~On Jor- dan's bank the Bap- tist's cry An- noun- ces that * the Lord is nigh; 
w: 2.~Then cleansed be ev- ery breast from sin; Make straight the way * for God with- in; 
w: 3.~For Thou art our Sal- va- tion, Lord, Our Ref- uge, and * our great Re- ward. 
w: 4.~Stretch forth Thine hand, to heal our sore, And make us rise * and fall no more; 
w: 5.~To Him Who left the throne of Heav'n To save man- kind, * all praise be giv'n; 
[V: S1V2]  A, | B,2 C | D2 D | D2 A, | ^F,2 B, | (D G) F | E2 E | F2 G | F2
[V: S2V1]  F, | F,2 A, | A,2 D, | (A, B,) C | D2 D | D2 A, | A,2 A, | A,2 B, | A,2
[V: S2V2]  D, | B,,2 A,, | (D, C,) B,, | (A,, G,,) A,, | D,2 G, | (F, E,) D, | C,2 A,, | D,2 D, | D,2
% 9
[V: S1V1]  A | d2 d | c2 A | B2 B | A2 G | A2 F | E2 F | D2 C | !fermata!D2 |]
w: Come, then, and hear- ken, for he brings Glad ti- dings from the King of kings! 
w: Pre- pare we in our hearts a home, Where such a might- y Guest may come.  
w: With- out Thy grace our souls must fade And wi- ther like a flow'r de- cayed. 
w: Once more up- on Thy peo- ple shine, And fill the world with love di- vine. 
w: Like praise be to the Fa- ther done, And Ho- ly Spi- rit, Three in One. 
[V: S1V2]  E | (D F) E | E2 D | B,2 D | D2 B, | E2 D | C2 D | B,2 A, | A,2 |]
[V: S2V1]  A, | B,2 B, | (A, G,) F, | G,2 G, | F,2 G, | E,2 A, | A,2 A, | (G, F,) E, | !fermata!F,2 |]
[V: S2V2]  C, | (B,, A,,) ^G,, | A,,2 D, | G,,2 B,, | D,2 E, | C,2 D, | (A,, G,,) F,, | G,,2 A,, | D,2 |]
% 19
